fs/weather_moon_off_20_regular.svg

<svg viewBox="0 0 20 20" fill="none" xmlns="http://www.w3.org/2000/svg" height="1em" width="1em">
  <path d="M2.85355 2.14645C2.65829 1.95118 2.34171 1.95118 2.14645 2.14645C1.95118 2.34171 1.95118 2.65829 2.14645 2.85355L8.75311 9.46022C8.74138 9.48308 8.72954 9.50592 8.71759 9.52873C7.78322 11.3123 6.17301 12.5593 3.16661 13.6353C2.79667 13.7677 2.65251 14.2146 2.87537 14.5382C3.54192 15.5062 4.41706 16.3181 5.45663 16.9183C8.6235 18.7467 12.5226 18.1581 15.0178 15.7249L17.1464 17.8536C17.3417 18.0488 17.6583 18.0488 17.8536 17.8536C18.0488 17.6583 18.0488 17.3417 17.8536 17.1464L15.6891 14.982C15.6891 14.982 15.6891 14.982 15.6891 14.982L14.9767 14.2695C14.9767 14.2694 14.9767 14.2695 14.9767 14.2695L9.95488 9.24778C9.9549 9.24775 9.95487 9.24781 9.95488 9.24778L9.18317 8.47592C9.18315 8.47596 9.18318 8.47589 9.18317 8.47592L2.85355 2.14645ZM14.3104 15.0175C12.1275 17.1382 8.72274 17.6493 5.95663 16.0523C5.20013 15.6155 4.54451 15.0518 4.01047 14.3889C6.74168 13.34 8.44563 12.0618 9.49166 10.1988L14.3104 15.0175ZM12.9378 3.96047C16.2504 5.87294 17.4026 10.0901 15.5386 13.4171L16.2697 14.1482C16.3 14.0983 16.3298 14.0478 16.3592 13.997C18.5631 10.1796 17.2552 5.29839 13.4378 3.09444C12.3371 2.45892 11.1233 2.10202 9.88082 2.03536C9.4801 2.01386 9.17217 2.38506 9.26732 2.77491C9.70416 4.56467 9.76124 6.04714 9.49303 7.37157L10.3213 8.19983C10.7456 6.68874 10.772 5.03411 10.3628 3.08348C11.2605 3.20177 12.1328 3.49567 12.9378 3.96047Z" fill="#212121"/>
</svg>

<svg viewBox="0 0 20 20" fill="none" xmlns="http://www.w3.org/2000/svg" height="1em" width="1em">
  <path d="M2.854 2.146a.5.5 0 1 0-.708.708L8.753 9.46a9.092 9.092 0 0 1-.035.069c-.935 1.783-2.545 3.03-5.551 4.106a.598.598 0 0 0-.292.903 7.985 7.985 0 0 0 12.142 1.187l2.13 2.129a.5.5 0 0 0 .707-.708l-2.165-2.164-.712-.712-5.022-5.022-.772-.772-6.33-6.33ZM14.31 15.018a6.984 6.984 0 0 1-10.3-.63c2.732-1.048 4.436-2.326 5.482-4.19l4.818 4.82ZM12.938 3.96a6.981 6.981 0 0 1 2.6 9.457l.732.731.09-.151A7.981 7.981 0 0 0 9.88 2.035a.599.599 0 0 0-.613.74c.437 1.79.494 3.272.226 4.597l.828.828c.425-1.511.451-3.166.042-5.117.898.119 1.77.413 2.575.877Z" fill="#212121"/>
</svg>
